images/svg/earth.svg

<svg id="ei0v4hp5p6df1" xmlns="http://www.w3.org/2000/svg" xmlns:xlink="http://www.w3.org/1999/xlink" viewBox="0 0 512 512" shape-rendering="geometricPrecision" text-rendering="geometricPrecision"><style><![CDATA[#ei0v4hp5p6df8_to {animation: ei0v4hp5p6df8_to__to 3000ms linear 1 normal forwards}@keyframes ei0v4hp5p6df8_to__to { 0% {transform: translate(135.719494px,226px)} 66.666667% {transform: translate(382.189030px,226px)} 100% {transform: translate(382.189030px,226px)} }#ei0v4hp5p6df10_to {animation: ei0v4hp5p6df10_to__to 3000ms linear 1 normal forwards}@keyframes ei0v4hp5p6df10_to__to { 0% {transform: translate(130.082844px,155.252000px)} 66.666667% {transform: translate(376.552380px,155.252000px)} 100% {transform: translate(376.552380px,155.252000px)} }#ei0v4hp5p6df12_to {animation: ei0v4hp5p6df12_to__to 3000ms linear 1 normal forwards}@keyframes ei0v4hp5p6df12_to__to { 0% {transform: translate(152.396364px,385.664997px)} 66.666667% {transform: translate(398.865900px,385.664997px)} 100% {transform: translate(398.865900px,385.664997px)} }#ei0v4hp5p6df26_ts {animation: ei0v4hp5p6df26_ts__ts 3000ms linear 1 normal forwards}@keyframes ei0v4hp5p6df26_ts__ts { 0% {transform: translate(89.999996px,77.625883px) scale(1,1)} 16.666667% {transform: translate(89.999996px,77.625883px) scale(0.500000,0.500000)} 33.333333% {transform: translate(89.999996px,77.625883px) scale(1,1)} 50% {transform: translate(89.999996px,77.625883px) scale(0.500000,0.500000)} 66.666667% {transform: translate(89.999996px,77.625883px) scale(1,1)} 83.333333% {transform: translate(89.999996px,77.625883px) scale(0.500000,0.500000)} 100% {transform: translate(89.999996px,77.625883px) scale(1,1)} }#ei0v4hp5p6df29_ts {animation: ei0v4hp5p6df29_ts__ts 3000ms linear 1 normal forwards}@keyframes ei0v4hp5p6df29_ts__ts { 0% {transform: translate(55.000095px,77.844424px) scale(1,1)} 16.666667% {transform: translate(55.000095px,77.844424px) scale(0.500000,0.500000)} 33.333333% {transform: translate(55.000095px,77.844424px) scale(1,1)} 50% {transform: translate(55.000095px,77.844424px) scale(0.500000,0.500000)} 66.666667% {transform: translate(55.000095px,77.844424px) scale(1,1)} 83.333333% {transform: translate(55.000095px,77.844424px) scale(0.500000,0.500000)} 100% {transform: translate(55.000095px,77.844424px) scale(1,1)} }]]></style><g id="ei0v4hp5p6df2"><g id="ei0v4hp5p6df3"><path id="ei0v4hp5p6df4" d="M502.148000,326.554000C508.561000,304.141000,512,280.473000,512,256C512,114.615000,397.385000,-0,256,-0C114.615000,-0,0,114.615000,0,256C0,397.385000,114.615000,512,256,512C289.088000,512,320.710000,505.721000,349.740000,494.292000Z" fill="rgb(77,77,121)" stroke="none" stroke-width="1"/></g><g id="ei0v4hp5p6df5"><path id="ei0v4hp5p6df6" d="M470.471000,187.819000L423.180000,187.819000L423.180000,105.426000C382.995000,60.838000,325.232000,32.411000,260.805000,31.060000L149.953000,69L52,236L150.440000,454.734000C181.922000,471.491000,217.848000,481,256,481C380.264000,481,481,380.264000,481,256C481,232.230000,477.303000,209.327000,470.471000,187.819000Z" fill="rgb(227,255,253)" stroke="none" stroke-width="1"/></g><g id="ei0v4hp5p6df7"><g id="ei0v4hp5p6df8_to" transform="translate(135.719494,226)"><path id="ei0v4hp5p6df8" d="M173.293000,206.750000C173.293000,215.034000,166.577000,221.750000,158.293000,221.750000L141.081000,221.750000C132.797000,221.750000,126.081000,228.466000,126.081000,236.750000C126.081000,245.034000,132.797000,251.750000,141.081000,251.750000L260.994000,251.750000C269.278000,251.750000,275.994000,245.034000,275.994000,236.750000C275.994000,228.466000,282.710000,221.750000,290.994000,221.750000L308.206000,221.750000C316.490000,221.750000,323.206000,215.034000,323.206000,206.750000C323.206000,198.466000,316.490000,191.750000,308.206000,191.750000L188.293000,191.750000C180.008000,191.750000,173.293000,198.466000,173.293000,206.750000Z" transform="translate(-224.643494,-221.750000)" fill="rgb(175,239,234)" stroke="none" stroke-width="1"/></g></g><g id="ei0v4hp5p6df9"><g id="ei0v4hp5p6df10_to" transform="translate(130.082844,155.252000)"><path id="ei0v4hp5p6df10" d="M225,161.750000L105,161.750000C96.716000,161.750000,90,155.034000,90,146.750000C90,138.466000,96.716000,131.750000,105,131.750000L225,131.750000C233.284000,131.750000,240,138.466000,240,146.750000C240,155.034000,233.284000,161.750000,225,161.750000Z" transform="translate(-165,-146.750000)" fill="rgb(175,239,234)" stroke="none" stroke-width="1"/></g></g><g id="ei0v4hp5p6df11"><g id="ei0v4hp5p6df12_to" transform="translate(152.396364,385.664997)"><path id="ei0v4hp5p6df12" d="M336.081000,429.659000L216.081000,429.659000C207.797000,429.659000,201.081000,422.943000,201.081000,414.659000C201.081000,406.375000,207.797000,399.659000,216.081000,399.659000L336.081000,399.659000C344.365000,399.659000,351.081000,406.375000,351.081000,414.659000C351.081000,422.943000,344.365000,429.659000,336.081000,429.659000Z" transform="translate(-276.080994,-414.658997)" fill="rgb(175,239,234)" stroke="none" stroke-width="1"/></g></g><g id="ei0v4hp5p6df13"><path id="ei0v4hp5p6df14" d="M446.937000,267.716000C444.404000,261.383000,436.488000,254.724000,436.488000,248.871000C436.488000,243.018000,448.521000,242.068000,450.420000,237.635000C451.846000,234.308000,464.331000,203.155000,470.471000,187.820000C460.660000,156.932000,444.366000,128.935000,423.180000,105.427000C422.998000,105.409000,399.866000,103.053000,387.566000,101.161000C375.217000,99.261000,349.569000,74.563000,341.019000,75.038000C332.469000,75.513000,313.471000,85.012000,313.471000,93.087000C313.471000,101.162000,314.896000,108.761000,309.196000,112.561000C303.496000,116.361000,277.848000,114.461000,272.148000,123.010000C266.448000,131.559000,265.498000,148.183000,272.148000,154.358000C278.798000,160.533000,293.047000,160.533000,299.696000,150.083000C306.346000,139.634000,317.270000,134.409000,329.619000,135.834000C341.968000,137.259000,346.217000,153.908000,350.492000,163.883000C354.767000,173.858000,365.216000,182.407000,378.515000,182.882000C391.814000,183.357000,397.514000,193.331000,394.664000,198.556000C391.814000,203.781000,380.652000,204.256000,373.053000,199.981000C365.454000,195.706000,361.179000,195.706000,357.854000,197.131000C354.529000,198.556000,347.405000,203.306000,340.755000,196.656000C334.105000,190.006000,326.506000,175.045000,316.769000,175.045000C307.032000,175.045000,272.122000,182.645000,264.997000,186.682000C257.872000,190.719000,234.282000,229.087000,234.282000,246.502000C234.282000,263.917000,263.572000,293.524000,273.071000,294.949000C282.570000,296.374000,298.523000,293.562000,310.594000,304.448000C322.665000,315.335000,334.267000,322.298000,331.892000,333.697000C329.517000,345.096000,331.575000,357.445000,335.058000,364.570000C338.541000,371.695000,354.998000,400.668000,374.331000,400.668000C393.664000,400.668000,398.862000,381.194000,402.662000,364.095000C406.462000,346.996000,420.812000,304.923000,429.361000,295.898000C437.913000,286.873000,449.471000,274.049000,446.937000,267.716000Z" fill="rgb(172,241,67)" stroke="none" stroke-width="1"/></g><g id="ei0v4hp5p6df15"><g id="ei0v4hp5p6df16"><path id="ei0v4hp5p6df17" d="M430.580000,229.128000C411.136000,229.128000,395.373000,213.365000,395.373000,193.921000L395.187000,193.869000C395.555000,195.582000,395.391000,197.222000,394.665000,198.553000C391.815000,203.778000,380.653000,204.253000,373.054000,199.978000C365.455000,195.703000,361.180000,195.703000,357.855000,197.128000C354.530000,198.553000,347.406000,203.303000,340.756000,196.653000C334.106000,190.003000,326.507000,175.042000,316.770000,175.042000C307.033000,175.042000,272.123000,182.641000,264.998000,186.679000C257.873000,190.716000,234.283000,229.084000,234.283000,246.499000C234.283000,263.915000,263.573000,293.521000,273.072000,294.946000C282.571000,296.371000,298.524000,293.559000,310.595000,304.445000C322.666000,315.332000,334.268000,322.295000,331.893000,333.694000C329.518000,345.093000,331.576000,357.442000,335.060000,364.567000C338.543000,371.692000,355,400.665000,374.333000,400.665000C393.666000,400.665000,398.864000,381.191000,402.664000,364.092000C406.464000,346.993000,420.814000,304.920000,429.363000,295.895000C437.912000,286.870000,449.470000,274.046000,446.937000,267.714000C444.404000,261.381000,436.488000,254.722000,436.488000,248.869000C436.488000,243.016000,448.521000,242.066000,450.420000,237.633000C451.252000,235.692000,455.846000,224.285000,460.748000,212.073000C454.587000,222.293000,443.383000,229.128000,430.580000,229.128000Z" transform="matrix(1 0 0 1 -0.00099999999998 0.00000000000023)" fill="rgb(141,221,22)" stroke="none" stroke-width="1"/></g></g><g id="ei0v4hp5p6df18"><path id="ei0v4hp5p6df19" d="M31,256C31,342.112000,79.383000,416.913000,150.440000,454.734000C147.225000,440.976000,141.504000,414.396000,143.591000,407.673000C146.441000,398.490000,184.622000,388.041000,195.705000,371.259000C206.788000,354.477000,203.477000,326.925000,193.489000,315.213000C183.501000,303.501000,80.762000,270.500000,80.762000,229.402000C80.762000,213.806000,122.559000,167.339000,129.209000,159.423000C135.859000,151.507000,166.573000,144.857000,171.956000,138.841000C177.339000,132.825000,170.505000,109.710000,164.173000,103.060000C157.840000,96.410000,157.207000,81.845000,159.107000,75.828000C161.007000,69.812000,198.584000,60.069000,202.067000,67.985000C205.550000,75.901000,195.417000,100.283000,203.334000,105.666000C211.250000,111.049000,247.926000,100.210000,263.600000,93.560000C279.274000,86.910000,285.449000,73.136000,284.974000,65.062000C284.623000,59.090000,268.948000,40.395000,260.806000,31.060000C259.207000,31.027000,257.607000,31,256,31C131.736000,31,31,131.736000,31,256Z" fill="rgb(172,241,67)" stroke="none" stroke-width="1"/></g><g id="ei0v4hp5p6df20"><path id="ei0v4hp5p6df21" d="M502.148000,326.554000C495.995000,316.147000,486.934000,307.695000,474.874000,302.335000C426.312000,280.752000,387,324.689000,387,324.689000C387,324.689000,347.688000,280.752000,299.126000,302.335000C250.564000,323.918000,250.564000,395.605000,293.730000,443.396000C314.486000,466.376000,333.806000,483.101000,349.740000,494.291000C423.282000,465.339000,480.184000,403.323000,502.148000,326.554000Z" fill="rgb(255,65,85)" stroke="none" stroke-width="1"/></g><g id="ei0v4hp5p6df22"><g id="ei0v4hp5p6df23"><path id="ei0v4hp5p6df24" d="M333.730000,443.397000C290.564000,395.606000,290.564000,323.919000,339.126000,302.336000C341.698000,301.193000,344.243000,300.244000,346.759000,299.452000C333.038000,295.297000,316.688000,294.531000,299.126000,302.336000C250.564000,323.919000,250.564000,395.606000,293.730000,443.397000C314.486000,466.377000,333.806000,483.102000,349.740000,494.292000C358.304000,490.921000,366.631000,487.083000,374.714000,482.844000C362.214000,472.618000,348.330000,459.561000,333.730000,443.397000Z" fill="rgb(232,0,84)" stroke="none" stroke-width="1"/></g></g><g id="ei0v4hp5p6df25"><g id="ei0v4hp5p6df26_ts" transform="translate(89.999996,77.625883) scale(1,1)"><path id="ei0v4hp5p6df26" d="M153.269000,4.294000C118.305000,-11.246000,90,20.389000,90,20.389000C90,20.389000,61.695000,-11.246000,26.731000,4.294000C-8.234000,19.834000,-8.234000,71.448000,22.846000,105.858000C53.926000,140.267000,80.566000,155.252000,90,155.252000C99.435000,155.252000,126.075000,140.267000,157.154000,105.858000C188.234000,71.449000,188.234000,19.834000,153.269000,4.294000Z" transform="translate(-89.999996,-77.625883)" fill="rgb(255,65,85)" stroke="none" stroke-width="1"/></g></g><g id="ei0v4hp5p6df27"><g id="ei0v4hp5p6df28"><g id="ei0v4hp5p6df29_ts" transform="translate(55.000095,77.844424) scale(1,1)"><path id="ei0v4hp5p6df29" d="M62.846000,105.858000C31.766000,71.448000,31.766000,19.834000,66.731000,4.294000C66.736000,4.292000,66.741000,4.290000,66.746000,4.288000C55.846000,-0.304000,41.918000,-2.455000,26.731000,4.294000C-8.234000,19.834000,-8.234000,71.448000,22.846000,105.858000C53.926000,140.267000,80.565000,155.252000,90,155.252000C93.955000,155.252000,100.940000,152.607000,110,147.015000C97.445000,139.266000,80.899000,125.845000,62.846000,105.858000Z" transform="translate(-55.000095,-77.626372)" fill="rgb(232,0,84)" stroke="none" stroke-width="1"/></g></g></g><g id="ei0v4hp5p6df30"><path id="ei0v4hp5p6df31" d="M80.762000,229.402000C80.762000,243.143000,69.622000,254.283000,55.881000,254.283000C44.428000,254.283000,34.789000,246.542000,31.894000,236.010000C31.314000,242.597000,31,249.262000,31,256C31,342.112000,79.383000,416.913000,150.440000,454.734000C147.225000,440.976000,141.504000,414.396000,143.591000,407.673000C146.441000,398.490000,184.622000,388.041000,195.705000,371.259000C206.788000,354.477000,203.477000,326.925000,193.489000,315.213000C183.501000,303.501000,80.762000,270.500000,80.762000,229.402000Z" fill="rgb(141,221,22)" stroke="none" stroke-width="1"/></g></g></svg>

<svg id="Capa_1" enable-background="new 0 0 512 512" height="512" viewBox="0 0 512 512" width="512" xmlns="http://www.w3.org/2000/svg"><g><g><path d="m502.148 326.554c6.413-22.413 9.852-46.081 9.852-70.554 0-141.385-114.615-256-256-256s-256 114.615-256 256 114.615 256 256 256c33.088 0 64.71-6.279 93.74-17.708z" fill="#4d4d79"/></g><g><path d="m470.471 187.819h-47.291v-82.393c-40.185-44.588-97.948-73.015-162.375-74.366l-110.852 37.94-97.953 167 98.44 218.734c31.482 16.757 67.408 26.266 105.56 26.266 124.264 0 225-100.736 225-225 0-23.77-3.697-46.673-10.529-68.181z" fill="#e3fffd"/></g><g><path d="m173.293 206.75c0 8.284-6.716 15-15 15h-17.212c-8.284 0-15 6.716-15 15 0 8.284 6.716 15 15 15h119.913c8.284 0 15-6.716 15-15 0-8.284 6.716-15 15-15h17.212c8.284 0 15-6.716 15-15 0-8.284-6.716-15-15-15h-119.913c-8.285 0-15 6.716-15 15z" fill="#afefea"/></g><g><path d="m225 161.75h-120c-8.284 0-15-6.716-15-15 0-8.284 6.716-15 15-15h120c8.284 0 15 6.716 15 15 0 8.284-6.716 15-15 15z" fill="#afefea"/></g><g><path d="m336.081 429.659h-120c-8.284 0-15-6.716-15-15 0-8.284 6.716-15 15-15h120c8.284 0 15 6.716 15 15 0 8.284-6.716 15-15 15z" fill="#afefea"/></g><g><path d="m446.937 267.716c-2.533-6.333-10.449-12.992-10.449-18.845s12.033-6.803 13.932-11.236c1.426-3.327 13.911-34.48 20.051-49.815-9.811-30.888-26.105-58.885-47.291-82.393-.182-.018-23.314-2.374-35.614-4.266-12.349-1.9-37.997-26.598-46.547-26.123s-27.548 9.974-27.548 18.049 1.425 15.674-4.275 19.474-31.348 1.9-37.048 10.449-6.65 25.173 0 31.348 20.899 6.175 27.548-4.275c6.65-10.449 17.574-15.674 29.923-14.249s16.598 18.074 20.873 28.049 14.724 18.524 28.023 18.999 18.999 10.449 16.149 15.674-14.012 5.7-21.611 1.425-11.874-4.275-15.199-2.85-10.449 6.175-17.099-.475-14.249-21.611-23.986-21.611-44.647 7.6-51.772 11.637-30.715 42.405-30.715 59.82 29.29 47.022 38.789 48.447 25.452-1.387 37.523 9.499c12.071 10.887 23.673 17.85 21.298 29.249s-.317 23.748 3.166 30.873 19.94 36.098 39.273 36.098 24.531-19.474 28.331-36.573 18.15-59.172 26.699-68.197c8.552-9.025 20.11-21.849 17.576-28.182z" fill="#acf143"/></g><g><g><path d="m430.58 229.128c-19.444 0-35.207-15.763-35.207-35.207l-.186-.052c.368 1.713.204 3.353-.522 4.684-2.85 5.225-14.012 5.7-21.611 1.425s-11.874-4.275-15.199-2.85-10.449 6.175-17.099-.475-14.249-21.611-23.986-21.611-44.647 7.599-51.772 11.637c-7.125 4.037-30.715 42.405-30.715 59.82 0 17.416 29.29 47.022 38.789 48.447s25.452-1.387 37.523 9.499c12.071 10.887 23.673 17.85 21.298 29.249s-.317 23.748 3.167 30.873c3.483 7.125 19.94 36.098 39.273 36.098s24.531-19.474 28.331-36.573 18.15-59.172 26.699-68.197 20.107-21.849 17.574-28.181c-2.533-6.333-10.449-12.992-10.449-18.845s12.033-6.803 13.932-11.236c.832-1.941 5.426-13.348 10.328-25.56-6.161 10.22-17.365 17.055-30.168 17.055z" fill="#8ddd16"/></g></g><g><path d="m31 256c0 86.112 48.383 160.913 119.44 198.734-3.215-13.758-8.936-40.338-6.849-47.061 2.85-9.183 41.031-19.632 52.114-36.414s7.772-44.334-2.216-56.046-112.727-44.713-112.727-85.811c0-15.596 41.797-62.063 48.447-69.979s37.364-14.566 42.747-20.582-1.451-29.131-7.783-35.781c-6.333-6.65-6.966-21.215-5.066-27.232 1.9-6.016 39.477-15.759 42.96-7.843s-6.65 32.298 1.267 37.681c7.916 5.383 44.592-5.456 60.266-12.106s21.849-20.424 21.374-28.498c-.351-5.972-16.026-24.667-24.168-34.002-1.599-.033-3.199-.06-4.806-.06-124.264 0-225 100.736-225 225z" fill="#acf143"/></g><g><path d="m502.148 326.554c-6.153-10.407-15.214-18.859-27.274-24.219-48.562-21.583-87.874 22.354-87.874 22.354s-39.312-43.937-87.874-22.354-48.562 93.27-5.396 141.061c20.756 22.98 40.076 39.705 56.01 50.895 73.542-28.952 130.444-90.968 152.408-167.737z" fill="#ff4155"/></g><g><g><path d="m333.73 443.397c-43.166-47.791-43.166-119.478 5.396-141.061 2.572-1.143 5.117-2.092 7.633-2.884-13.721-4.155-30.071-4.921-47.633 2.884-48.562 21.583-48.562 93.27-5.396 141.061 20.756 22.98 40.076 39.705 56.01 50.895 8.564-3.371 16.891-7.209 24.974-11.448-12.5-10.226-26.384-23.283-40.984-39.447z" fill="#e80054"/></g></g><g><path d="m153.269 4.294c-34.964-15.54-63.269 16.095-63.269 16.095s-28.305-31.635-63.269-16.095c-34.965 15.54-34.965 67.154-3.885 101.564 31.08 34.409 57.72 49.394 67.154 49.394 9.435 0 36.075-14.985 67.154-49.394 31.08-34.409 31.08-86.024-3.885-101.564z" fill="#ff4155"/></g><g><g><path d="m62.846 105.858c-31.08-34.41-31.08-86.024 3.885-101.564.005-.002.01-.004.015-.006-10.9-4.592-24.828-6.743-40.015.006-34.965 15.54-34.965 67.154-3.885 101.564 31.08 34.409 57.719 49.394 67.154 49.394 3.955 0 10.94-2.645 20-8.237-12.555-7.749-29.101-21.17-47.154-41.157z" fill="#e80054"/></g></g><g><path d="m80.762 229.402c0 13.741-11.14 24.881-24.881 24.881-11.453 0-21.092-7.741-23.987-18.273-.58 6.587-.894 13.252-.894 19.99 0 86.112 48.383 160.913 119.44 198.734-3.215-13.758-8.936-40.338-6.849-47.061 2.85-9.183 41.031-19.632 52.114-36.414s7.772-44.334-2.216-56.046-112.727-44.713-112.727-85.811z" fill="#8ddd16"/></g></g></svg>
